X:1
T:Title
%%score 1 { 2 | 3 }
L:1/8
Q:1/4=80
M:4/4
K:D
V:1 treble nm="Grand Piano, SOPRANO ALTO"
V:2 bass nm="Grand Piano, TENOR BASS"
V:3 bass 
V:1
 z4 z2 z [B,D] | [DG]>[DG] [DG]>[DG] [GB] [DG]2 [GB] | [GB]>[GB] [Gd]>[GB] [FA]3 [DG] | %3
w: 1.~I~|cried~ to~ God~ for~ mer cy,~ When~|I~ was~ lost~ in~ sin;~ He~|
 [GB]>[GB] [GB]>[GB] [Gd] [GB]2 G | [GB]>[GB] [GB]>[FA] [DG]3 [GB] | %5
w: heard~ my~ ear nest~ plead ings,~ And~|free ly~ took~ me~ in.~ *|
 [DG]>[DG] [DG]>[DG] [GB]3 [DG] | [GB]>[GB] [Gd]>[GB] [FA]3 [DG] | %7
w: ||
 [GB]>[GB] [GB]>[GB] [Gd] [GB]2 G | [GB]>[GB] [GB]>[FA] [DG]4 |] %9
w: ||
V:2
 z4 z2 z G, | B,>B, B,>B,[K:treble] D B,2 D | D>D B,>D D3 B, | D>D D>D B, D2 C | %4
 D>D D>=C[K:bass] B,3 D | B,>B, B,>B,[K:treble] D3 B, | D>D B,>D D3 B, | D>D D>D B, D2 C | %8
 D>D D>=C B,4 |] %9
V:3
 z8 | G,>G, G,>G, G, G,2 G, | G,>G, G,>G, D,3 G, | G,>G, G,>G, G, G,2 E, | %4
 D,>D, D,>D, [G,,G,]3 G, | G,>G, G,>G, G,3 G, | G,>G, G,>G, D,3 G, | G,>G, G,>G, G, G,2 E, | %8
 D,>D, D,>D, [G,,G,]4 |] %9

